X:1
T:Title
%%score { 1 | 2 }
L:1/8
Q:1/4=100
M:4/4
K:Bb
V:1 treble nm="Grand Piano"
V:2 bass 
V:1
 [DF][DF][DF][DF] [EG]2 [DF][B,D] | [DF]2 [FB]c d2 z d | e2 dc [Fd]2 [FB][Fd] | [Fc]6 [EF]2 | %4
w: J.~Howard~Entwisle * * * * * *||||
 [DF]2 [Fd][Fd] [Fd]2 [Fc][FB] | [EG]2 [Ge][Ge] [Ge]2 z [Ge] | d2 de d2 cc |[M:3/4] [DB]6 | %8
w: ||||
[M:1/4] [DF]2 |[M:4/4] [EG]2 [GB]>[GB] [GB]2 z [EG] | [DF]2 [Fd]>[Fd] [Fd]2 z [Fd] | %11
w: |||
 [Fd]2 [Ec][DB] [Fd]2 [Fc][FB] | c6 FF | [DF]2 [DB]2 [Fd][Ec][DB][FA] | [EG]2 [Ge]2 [Ge]2 z [Ge] | %15
w: ||||
 d2 dc B2 [CA][EA] | [DB]6 z2 |] %17
w: ||
V:2
 [B,,B,][B,,B,][B,,B,][B,,B,] [B,,B,]2 [B,,B,][B,,F,] | %1
 [B,,B,]2 [D,B,][K:treble][F,A,F] [B,F]2 z [B,F] | %2
 [F,CF]2 [F,B,F][K:bass][F,A,F] [B,,B,]2 [D,B,][B,,B,] | [F,A,]6 [F,A,]2 | %4
 [B,,B,]2 [B,,B,][B,,B,] [B,,B,]2 [C,A,][D,B,] | [E,B,]2 [E,B,][E,B,] [E,B,]2 z [E,B,] | %6
 [F,B,F]2 [F,B,F][F,B,G] [F,B,F]2 [F,A,E][F,A,E] |[M:3/4] [B,,F,]6 |[M:1/4] [B,,B,]2 | %9
[M:4/4] [E,B,]2 [E,B,]>[E,B,] [E,B,]2 z [E,B,] | [B,,B,]2 [B,,B,]>[B,,B,] [B,,B,]2 z [B,,B,] | %11
 [B,,B,]2 [B,,B,][B,,B,] [B,,B,]2 [C,A,][D,B,] | [F,A,F]6 [F,A,E][F,A,E] | %13
 [B,,B,]2 [B,,B,]2 [B,,B,][B,,F,][B,,F,][D,B,] | [E,B,]2 [E,B,]2 [E,B,]2 z [E,B,] | %15
 [F,B,F]2 [F,B,F][F,E] [F,D]2 [F,,F,][F,,F,] | [B,,F,]6 z2 |] %17

